!!!!SEGMENT: pl-cz--iii-112--001_dankowski-adalbert--vesperae-d-dixit-dominus.krn
!!!cenid: 18xx:798
!!!COM: Dankowski, Adalbert
!!!COM-rismid: pe30000793
!!!CDT: ~1760-~1836
!!!CNT: Polish
!!!OPR: Vesperae D
!!!OTL: Dixit Dominus
!!!OMV: 001
!!!PDT:
!!!AGN: Sacred; Vespers
!!!SMS-siglum: PL-CZ
!!!SMS-shelfmark: III-112
!!!SMS-shelfwork: 001-001 M
!!!SMS-variant:
!!!SMS-altvar:
!!!NIFC-rismid: 300033579
!!!URL-scan: http://repozytorium.nifc.pl/skany/pl-cz-nut--iii-112
!!!ONB-nifc: UWAGA: części Vesperae: Dixit Dominus, Tecum principium, Dominus, Gloria patri, Nunc dimittis – Magnificat, Et misericordia, Gloria patri
!!!key: D
**kern	**fba	**kern	**dynam	**kern	**dynam	**kern	**text	**text	**kern	**text	**text	**kern	**text	**text	**kern	**text	**text	**kern	**kern
*	*	*group3	*	*group3	*	*group2	*	*	*group2	*	*	*group2	*	*	*group2	*	*	*group1	*group1
*part9	*part9	*part8	*part8	*part7	*part7	*part6	*part6	*part6	*part5	*part5	*part5	*part4	*part4	*part4	*part3	*part3	*part3	*part2	*part1
*staff9	*	*staff8	*	*staff7	*	*staff6	*staff6	*staff6	*staff5	*staff5	*staff5	*staff4	*staff4	*staff4	*staff3	*staff3	*staff3	*staff2	*staff1
*I"Organo	*	*I"Violino Secondo	*	*I"Violino Primo	*	*I"Baſso	*	*	*I"Tenore	*	*	*I"Alto	*	*	*I"Canto	*	*	*I"Clarino Secondo	*I"Clarino Primo Ex D:
*I'org	*	*I'vl 2	*	*I'vl 1	*	*I'B	*	*	*I'T	*	*	*I'A	*	*	*I'S	*	*	*I'clno 2	*I'clno 1 in D
*Iorgan	*	*Ivioln	*	*Ivioln	*	*Ibass	*	*	*Itenor	*	*	*Ialto	*	*	*Isoprn	*	*	*Itromp	*Itromp
*ICklav	*	*ICstr	*	*ICstr	*	*ICvox	*	*	*ICvox	*	*	*ICvox	*	*	*ICvox	*	*	*ICbras	*ICbras
*IGcont	*	*	*	*	*	*IGcoro	*	*	*IGcoro	*	*	*IGcoro	*	*	*IGcoro	*	*	*	*
*clefF4	*	*clefG2	*	*clefG2	*	*clefF4	*	*	*clefC4	*	*	*clefC3	*	*	*clefC1	*	*	*clefG2	*clefG2
*	*	*	*	*	*	*	*	*	*	*	*	*	*	*	*	*	*	*ITrd-1c-2	*ITrd-1c-2
*k[f#c#]	*	*k[f#c#]	*	*k[f#c#]	*	*k[f#c#]	*	*	*k[c#f#]	*	*	*k[f#c#]	*	*	*k[f#c#]	*	*	*k[f#c#]	*k[f#c#]
*D:	*	*D:	*	*D:	*	*D:	*	*	*D:	*	*	*D:	*	*	*D:	*	*	*D:	*D:
*M3/4	*	*M3/4	*	*M3/4	*	*M3/4	*	*	*M3/4	*	*	*M3/4	*	*	*M3/4	*	*	*M3/4	*M3/4
=1	=1	=1	=1	=1	=1	=1	=1	=1	=1	=1	=1	=1	=1	=1	=1	=1	=1	=1	=1
*	*	*	*	*	*	*	*	*	*2\right	*	*	*2\right	*	*	*2\right	*	*	*	*
!	!	!	!	!	!	!	!	!	!	!	!	!	!	!	!LO:TX:t=P:problem:znaki f# cc#	!	!	!	!
!	!	!	!	!	!	!LO:TX:t=P:problem:dolny tekst wykreślony ołówkiem	!	!	!LO:TX:t=P:problem:dolny tekst wykreślony ołówkiem	!	!	!LO:TX:t=P:problem:dolny tekst wykreślony ołówkiem	!	!	!LO:TX:t=P:problem:dolny tekst wykreślony ołówkiem	!	!	!	!
!LO:TX:a:t=allo tutti	!	!LO:TX:a:t=allo	!LO:DY:t=for	!LO:TX:a:t=allo	!LO:DY:t=f.	!LO:TX:a:t=allo&colon;	!	!	!LO:TX:a:t=allo	!	!	!LO:TX:a:t=allo&colon;	!	!	!LO:TX:a:t=allo&colon;	!	!	!LO:TX:a:t=allo.	!LO:TX:a:t=allo&colon;
4D\	.	8ff#\L	f	8ff#L 8a 8d\	f	(4D\	Cum	[[Dix-	2A\	Cum	[[Dix-	2f#\	Cum	[[Di-	2dd\	Cum	[[Di-	4dd\	4ff#\
.	.	16aa\L	.	16aa\L	.	.	.	.	.	.	.	.	.	.	.	.	.	.	.
.	.	16ff#\JJ	.	16ff#\JJ	.	.	.	.	.	.	.	.	.	.	.	.	.	.	.
!	!	!LO:TX:t=P:problem:mixed beam	!	!LO:TX:t=P:problem:mixed beam	!	!	!	!	!	!	!	!	!	!	!	!	!	!	!
4F#\	6	8dd\L	.	8dd\L	.	4F#\)	in-	.	.	.	.	.	.	.	.	.	.	4dd\	4ff#\
.	.	8d/	.	8d/	.	.	.	.	.	.	.	.	.	.	.	.	.	.	.
4A\	.	8e/	.	8e/	.	4G\	-vo-	-it	4A\	in-	-it	4e\	in-	-xit	4cc#\	in-	-xit	4a/	4ee\
.	.	8cc#/J	.	8cc#/J	.	.	.	.	.	.	.	.	.	.	.	.	.	.	.
=2	=2	=2	=2	=2	=2	=2	=2	=2	=2	=2	=2	=2	=2	=2	=2	=2	=2	=2	=2
4d\	.	16d/LL	.	16dd/LL	.	8d\	-ca-	Do-	8A\	-vo-	Do-	8f#\	-vo-	Do-	8dd\	-vo-	Do-	4f#/	4dd\
.	.	16A/	.	16f#/	.	.	.	.	.	.	.	.	.	.	.	.	.	.	.
.	.	16B/	.	16g/	.	8d\	.	-mi-	8A\	-ca-	-mi-	8f#\	-ca-	-mi-	8dd\	-ca-	-mi-	.	.
.	.	16c#/JJ	.	16a/JJ	.	.	.	.	.	.	.	.	.	.	.	.	.	.	.
4D\	.	16d/LL	.	16b\LL	.	4D\	-rem	-nus	4A\	-rem	-nus	4f#\	-rem	-nus	4dd\	-rem	-nus	4f#/	4dd\
.	.	16e/	.	16cc#\	.	.	.	.	.	.	.	.	.	.	.	.	.	.	.
.	.	16f#/	.	16dd\	.	.	.	.	.	.	.	.	.	.	.	.	.	.	.
.	.	16g/JJ	.	16ee\JJ	.	.	.	.	.	.	.	.	.	.	.	.	.	.	.
4r	.	16a/LL	.	16ff#\LL	.	4r	.	.	4r	.	.	4r	.	.	4r	.	.	4r	4r
.	.	16b/	.	16gg\	.	.	.	.	.	.	.	.	.	.	.	.	.	.	.
.	.	16a/	.	16ff#\	.	.	.	.	.	.	.	.	.	.	.	.	.	.	.
.	.	16g/JJ	.	16ee\JJ	.	.	.	.	.	.	.	.	.	.	.	.	.	.	.
=3	=3	=3	=3	=3	=3	=3	=3	=3	=3	=3	=3	=3	=3	=3	=3	=3	=3	=3	=3
!	!	!LO:TX:t=P:problem:mixed beam	!	!	!	!	!	!	!	!	!	!	!	!	!	!	!	!	!
4D\	.	8f#/L	.	8dd\L	.	4D\	cum	Do-	4A\	ex-	Do-	4f#\	cum	Do-	4dd\	ex-	Do-	4dd\	4ff#\
.	.	16aa\L	.	16aa\L	.	.	.	.	.	.	.	.	.	.	.	.	.	.	.
.	.	16ff#\JJ	.	16ff#\JJ	.	.	.	.	.	.	.	.	.	.	.	.	.	.	.
!	!	!LO:TX:t=P:problem:mixed beam	!	!LO:TX:t=P:problem:mixed beam	!	!	!	!	!	!	!	!	!	!	!	!	!	!	!
4F#\	6	8dd\L	.	8dd\L	.	4F#\	in-	-mi-	4A\	.	-mi-	4f#\	in-	-mi-	4dd\	-au-	-mi-	4dd\	4ff#\
.	.	8d/	.	8d/	.	.	.	.	.	.	.	.	.	.	.	.	.	.	.
4A\	.	8e/	.	8e/	.	4A\	-vo-	-no	4A\	-au-	-no	4e\	-vo-	-no	4cc#\	-di-	-no	4a/	4ee\
.	.	8cc#/J	.	8cc#/J	.	.	.	.	.	.	.	.	.	.	.	.	.	.	.
!	!	!LO:LB:g=original	!	!LO:LB:g=original	!	!	!	!	!	!	!	!	!	!	!	!	!	!	!
=4	=4	=4	=4	=4	=4	=4	=4	=4	=4	=4	=4	=4	=4	=4	=4	=4	=4	=4	=4
4d\	.	16d/LL	.	16dd\LL	.	4d\	-ca-	me-	4A\	-di-	me-	4f#\	-ca-	me-	4dd\	-vit	me-	4f#/	4dd\
.	.	16f#/	.	16a\	.	.	.	.	.	.	.	.	.	.	.	.	.	.	.
.	.	16g/	.	16b\	.	.	.	.	.	.	.	.	.	.	.	.	.	.	.
.	.	16a/JJ	.	16cc#\JJ	.	.	.	.	.	.	.	.	.	.	.	.	.	.	.
4D\	.	16b\LL	.	16dd\LL	.	4D\	-rem	-o	4A\	-vit	-o	4f#\	-rem	-o	4dd\	me	-o	4f#/	4dd\
.	.	16cc#\	.	16ee\	.	.	.	.	.	.	.	.	.	.	.	.	.	.	.
.	.	16dd\	.	16ff#\	.	.	.	.	.	.	.	.	.	.	.	.	.	.	.
.	.	16ee\JJ	.	16gg\JJ	.	.	.	.	.	.	.	.	.	.	.	.	.	.	.
4r	.	16ff#\LL	.	16aa\LL	.	4r	.	.	4r	.	.	4r	.	.	4r	.	.	4r	4r
.	.	16gg\	.	16bb\	.	.	.	.	.	.	.	.	.	.	.	.	.	.	.
.	.	16ff#\	.	16aa\	.	.	.	.	.	.	.	.	.	.	.	.	.	.	.
.	.	16ee\JJ	.	16gg\JJ	.	.	.	.	.	.	.	.	.	.	.	.	.	.	.
!	!	!	!	!	!	!LO:LB:g=original	!	!	!LO:LB:g=original	!	!	!LO:LB:g=original	!	!	!LO:LB:g=original	!	!	!	!
=5	=5	=5	=5	=5	=5	=5	=5	=5	=5	=5	=5	=5	=5	=5	=5	=5	=5	=5	=5
*	*	*	*	*	*	*	*	*	*	*	*	*	*	*	*	*	*	*2\right	*2\right
!LO:TX:t=P:problem:mixed beam	!	!	!	!	!	!	!	!	!	!	!	!	!	!	!	!	!	!	!
8D\L	.	8.dd\L	.	8.ff#\L	.	4D\	ex-	Se-	4d\	me	Se-	4a\	ex-	Se-	4ff#\	De-	Se-	2dd\	2ff#\
8D\	.	.	.	.	.	.	.	.	.	.	.	.	.	.	.	.	.	.	.
.	.	32ee\LL	.	32gg\LL	.	.	.	.	.	.	.	.	.	.	.	.	.	.	.
.	.	32ff#\JJJ	.	32aa\JJJ	.	.	.	.	.	.	.	.	.	.	.	.	.	.	.
8A\	4	16ee\LL	.	16gg\LL	.	4A\	.	-de	4d\	De-	-de	4a\	.	-de	4ff#\	-us	-de	.	.
.	.	16dd\	.	16ff#\	.	.	.	.	.	.	.	.	.	.	.	.	.	.	.
8A\	.	16cc#\	.	16ee\	.	.	.	.	.	.	.	.	.	.	.	.	.	.	.
.	.	16dd\JJ	.	16ff#\JJ	.	.	.	.	.	.	.	.	.	.	.	.	.	.	.
8AA/	3	16ff#\LL	.	16aa\LL	.	4A\	-au-	a	4c#\	-us	a	4a\	-au-	a	4ee\	jus-	a	4a/	4ee\
.	.	16ee\	.	16gg\	.	.	.	.	.	.	.	.	.	.	.	.	.	.	.
8AA/J	.	16dd\	.	16ff#\	.	.	.	.	.	.	.	.	.	.	.	.	.	.	.
.	.	16cc#\JJ	.	16ee\JJ	.	.	.	.	.	.	.	.	.	.	.	.	.	.	.
!LO:LB:g=original	!	!	!	!	!	!	!	!	!	!	!	!	!	!	!	!	!	!	!
=6	=6	=6	=6	=6	=6	=6	=6	=6	=6	=6	=6	=6	=6	=6	=6	=6	=6	=6	=6
!LO:TX:t=P:problem:mixed beam	!	!	!	!	!	!	!	!	!	!	!	!	!	!	!	!	!	!	!
8D/L	.	8.b\L	.	8.dd\L	.	4B\	-di-	dex-	2B\	jus-	dex-	2f#\	-di-	dex-	2dd\	-ti-	dex-	2.dd\	2.ff#\
8D/	.	.	.	.	.	.	.	.	.	.	.	.	.	.	.	.	.	.	.
.	.	32cc#\LL	.	32ee\LL	.	.	.	.	.	.	.	.	.	.	.	.	.	.	.
.	.	32dd\JJJ	.	32ff#\JJJ	.	.	.	.	.	.	.	.	.	.	.	.	.	.	.
8F#/	4	16cc#\LL	.	16ee\LL	.	4F#\	-vit	-tris	.	.	.	.	.	.	.	.	.	.	.
.	.	16b\	.	16dd\	.	.	.	.	.	.	.	.	.	.	.	.	.	.	.
8F#/	3	16a\	.	16cc#\	.	.	.	.	.	.	.	.	.	.	.	.	.	.	.
.	.	16b\JJ	.	16dd\JJ	.	.	.	.	.	.	.	.	.	.	.	.	.	.	.
*	*	*	*	*	*	*	*	*ij	*	*	*	*	*	*	*	*	*	*	*
8FF#/	.	16dd\LL	.	16ff#\LL	.	4F#\	me	a	4A\	.	-tris	4f#\	-vit	-tris	4cc#\	-ti-	-tris	.	.
.	.	16cc#\	.	16ee\	.	.	.	.	.	.	.	.	.	.	.	.	.	.	.
8FF#/J	.	16b\	.	16dd\	.	.	.	.	.	.	.	.	.	.	.	.	.	.	.
.	.	16a\JJ	.	16cc#\JJ	.	.	.	.	.	.	.	.	.	.	.	.	.	.	.
!	!	!	!	!LO:LB:g=original	!	!	!	!	!	!	!	!	!	!	!	!	!	!	!
=7	=7	=7	=7	=7	=7	=7	=7	=7	=7	=7	=7	=7	=7	=7	=7	=7	=7	=7	=7
*	*	*	*	*	*	*2\right	*	*	*	*	*ij	*	*	*ij	*	*	*ij	*	*
!LO:TX:t=P:problem:mixed beam	!	!	!	!	!	!	!	!	!	!	!	!	!	!	!	!	!	!	!
8GG/L	.	8g/L	.	8.b\L	.	2G\	De-	dex-	4B\	-ti-	dex-	4g\	me-	dex-	4b\	-ae	dex-	4ee\	4gg\
8GG/	.	8b/J	.	.	.	.	.	.	.	.	.	.	.	.	.	.	.	.	.
.	.	.	.	32cc#\LL	.	.	.	.	.	.	.	.	.	.	.	.	.	.	.
.	.	.	.	32dd\JJJ	.	.	.	.	.	.	.	.	.	.	.	.	.	.	.
!	!	!LO:LB:g=original	!	!	!	!	!	!	!	!	!	!	!	!	!	!	!	!	!
8G\	6	8b\L	.	16ee\LL	.	.	.	.	4B\	-ti-	.	4g\	.	.	4ee\	me-	.	4ee\	4gg\
.	.	.	.	16dd\	.	.	.	.	.	.	.	.	.	.	.	.	.	.	.
8G\	.	8b\	.	16ee\	.	.	.	.	.	.	.	.	.	.	.	.	.	.	.
.	.	.	.	16ff#\JJ	.	.	.	.	.	.	.	.	.	.	.	.	.	.	.
!	!	!	!	!	!	!	!	!	!	!	!	!LO:SIC:v:l:s=-ae:verse 2	!	!	!	!	!	!	!
8G#X\	5	8b\	.	16gg\LL	.	4G#X\	-us	-tris	4B\	-ae	-tris	4f#\	-me	-tris	4dd\	-ae	-tris	4dd\	4ff#\
*	*	*	*	*	*	*	*	*Xij	*	*	*Xij	*	*	*Xij	*	*	*Xij	*	*
.	.	.	.	16ff#\	.	.	.	.	.	.	.	.	.	.	.	.	.	.	.
8G#\J	.	8b\J	.	16ee\	.	.	.	.	.	.	.	.	.	.	.	.	.	.	.
.	.	.	.	16dd\JJ	.	.	.	.	.	.	.	.	.	.	.	.	.	.	.
!	!	!	!	!	!	!	!	!	!	!	!	!	!	!	!	!	!	!	!LO:LB:g=original
=8	=8	=8	=8	=8	=8	=8	=8	=8	=8	=8	=8	=8	=8	=8	=8	=8	=8	=8	=8
4A\	4	8f#/L	.	8dd\L	.	4A\	De-	me-	4A\	me-	me-	4f#\	De-	me-	4dd\	me-	me-	4dd\	4ff#\
.	.	16e/L	.	16cc#\L	.	.	.	.	.	.	.	.	.	.	.	.	.	.	.
.	.	16f#/JJ	.	16dd\JJ	.	.	.	.	.	.	.	.	.	.	.	.	.	.	.
!	!	!	!	!	!	!LO:SIC:v:l:s=-is:verse 2	!	!	!LO:SIC:v:l:s=-is:verse 2	!	!	!LO:SIC:v:l:s=-is:verse 2	!	!	!LO:SIC:v:l:s=-is:verse 2	!	!	!	!
4AA/	3	16e/LL	.	16cc#\LL	.	4AA/	-us	-i	4A\	-ae	-i	4e\	-us	-i	4cc#\	-ae	-i	4a/	4ee\
.	.	16c#/	.	16a\	.	.	.	.	.	.	.	.	.	.	.	.	.	.	.
.	.	16d/	.	16b\	.	.	.	.	.	.	.	.	.	.	.	.	.	.	.
.	.	16e/JJ	.	16cc#\JJ	.	.	.	.	.	.	.	.	.	.	.	.	.	.	.
4r	.	16f#/LL	.	16dd\LL	.	4r	.	.	4r	.	.	4r	.	.	4r	.	.	4r	4r
.	.	16g#X/	.	16ee\	.	.	.	.	.	.	.	.	.	.	.	.	.	.	.
.	.	16a/	.	16ff#\	.	.	.	.	.	.	.	.	.	.	.	.	.	.	.
.	.	16b/JJ	.	16gg#X\JJ	.	.	.	.	.	.	.	.	.	.	.	.	.	.	.
!	!	!	!	!	!	!	!	!	!	!	!	!	!	!	!	!	!	!LO:LB:g=original	!
=9	=9	=9	=9	=9	=9	=9	=9	=9	=9	=9	=9	=9	=9	=9	=9	=9	=9	=9	=9
8A\L	.	8cc#\L	.	8aa\L	.	2A\	Jus-	Do-	2c#\	in	Do-	2a\	jus-	Do-	2ee\	in	Do-	4a/	2.ee\
8A\	.	16a\L	.	16cc#\L	.	.	.	.	.	.	.	.	.	.	.	.	.	.	.
.	.	16b\JJ	.	16dd\JJ	.	.	.	.	.	.	.	.	.	.	.	.	.	.	.
8A\	.	8cc#\L	.	8ee\L	.	.	.	.	.	.	.	.	.	.	.	.	.	4a/	.
8A\	.	8cc#\	.	8ee\J	.	.	.	.	.	.	.	.	.	.	.	.	.	.	.
8A\	.	8cc#\	.	16ee\LL	.	4A\	.	-nec	4B\	.	-nec	4a\	.	-nec	4ee\	.	-nec	4a/	.
.	.	.	.	16ff#\	.	.	.	.	.	.	.	.	.	.	.	.	.	.	.
8A\J	.	8cc#\J	.	16gg#X\	.	.	.	.	.	.	.	.	.	.	.	.	.	.	.
.	.	.	.	16aa\JJ	.	.	.	.	.	.	.	.	.	.	.	.	.	.	.
=10	=10	=10	=10	=10	=10	=10	=10	=10	=10	=10	=10	=10	=10	=10	=10	=10	=10	=10	=10
8A\L	6 4	8dd\L	.	8ff#\L	.	4A\	-ti-	po-	4d\	tri-	po-	4a\	-ti-	po-	4ff#\	tri-	po-	4dd\	4ff#\
8A\	.	16cc#\L	.	16ee\L	.	.	.	.	.	.	.	.	.	.	.	.	.	.	.
.	.	16dd\JJ	.	16ff#\JJ	.	.	.	.	.	.	.	.	.	.	.	.	.	.	.
!	!	!	!	!LO:LB:g=original	!	!	!	!	!	!	!	!	!	!	!	!	!	!	!
8A\	5 3	8cc#\L	.	8ee\L	.	4A\	.	-nam	4c#\	-bu-	-nam	4a\	.	-nam	4ee\	-bu-	-nam	4a/	4ee\
8A\	.	8cc#\	.	8ee\J	.	.	.	.	.	.	.	.	.	.	.	.	.	.	.
!	!	!	!	!	!	!LO:LB:g=original	!	!	!LO:LB:g=original	!	!	!LO:LB:g=original	!	!	!LO:LB:g=original	!	!	!	!
8A\	.	8cc#\	.	16aa\LL	.	8A\	-ti-	i-	8e\	-la-	i-	8a\	-ti-	i-	8ee\	-la-	i-	4a/	4ee\
.	.	.	.	16gg\	.	.	.	.	.	.	.	.	.	.	.	.	.	.	.
8A\J	.	8cc#\J	.	16ff#\	.	8A\	-ae	-ni-	8e\	-ti-	-ni-	8a\	-ae	-ni-	8ee\	-ti-	-ni-	.	.
.	.	.	.	16ee\JJ	.	.	.	.	.	.	.	.	.	.	.	.	.	.	.
=11	=11	=11	=11	=11	=11	=11	=11	=11	=11	=11	=11	=11	=11	=11	=11	=11	=11	=11	=11
*2\right	*	*2\right	*	*	*	*	*	*	*	*	*	*	*	*	*	*	*	*	*
*tremolo	*	*tremolo	*	*	*	*	*	*	*	*	*	*	*	*	*	*	*	*	*
8G#X\L	6 5	8b\L	.	16ee\LL	.	2G#X\	me-	-mi-	2e\	-o-	-mi-	2b\	me-	-mi-	2dd\	-one	-mi-	4ee\	4ee\
.	.	.	.	16dd\	.	.	.	.	.	.	.	.	.	.	.	.	.	.	.
8G#X\	.	8b\	.	16cc#\	.	.	.	.	.	.	.	.	.	.	.	.	.	.	.
.	.	.	.	16dd\JJ	.	.	.	.	.	.	.	.	.	.	.	.	.	.	.
8G#X\	.	8b\	.	16bb\LL	.	.	.	.	.	.	.	.	.	.	.	.	.	4ee\	4ee\
.	.	.	.	16aa\	.	.	.	.	.	.	.	.	.	.	.	.	.	.	.
8G#X\	.	8b\	.	16gg#X\	.	.	.	.	.	.	.	.	.	.	.	.	.	.	.
.	.	.	.	16ff#\JJ	.	.	.	.	.	.	.	.	.	.	.	.	.	.	.
8G#X\	.	8b\	.	16ee\LL	.	4G#\	-ae	-cos	4e\	.	-cos	4b\	-ae	-cos	4dd\	dila-	-cos	4ee\	4ee\
.	.	.	.	16ff#\	.	.	.	.	.	.	.	.	.	.	.	.	.	.	.
8G#X\J	.	8b\J	.	16ee\	.	.	.	.	.	.	.	.	.	.	.	.	.	.	.
.	.	.	.	16dd\JJ	.	.	.	.	.	.	.	.	.	.	.	.	.	.	.
*Xtremolo	*	*Xtremolo	*	*	*	*	*	*	*	*	*	*	*	*	*	*	*	*	*
!LO:LB:g=original	!	!LO:LB:g=original	!	!	!	!	!	!	!	!	!	!	!	!	!	!	!	!	!
=12	=12	=12	=12	=12	=12	=12	=12	=12	=12	=12	=12	=12	=12	=12	=12	=12	=12	=12	=12
4A\	.	16a/LL	.	16cc#\LL	.	4A\	me-	tu-	4e\	.	tu-	4a\	me-	tu-	4cc#\	-taſ-	tu-	4a/	4ee\
.	.	16g#X/	.	16b\	.	.	.	.	.	.	.	.	.	.	.	.	.	.	.
.	.	16a/	.	16cc#\	.	.	.	.	.	.	.	.	.	.	.	.	.	.	.
.	.	16b/JJ	.	16dd\JJ	.	.	.	.	.	.	.	.	.	.	.	.	.	.	.
4AA/	.	8a\L	.	8cc#\L	.	4A\	-ae	-os	4e\	-ne	-os	4a\	-ae	-os	4cc#\	-ti	-os	4a/	4ee\
.	.	16cc#\L	.	16cc#\L	.	.	.	.	.	.	.	.	.	.	.	.	.	.	.
.	.	16ee\JJ	.	16ee\JJ	.	.	.	.	.	.	.	.	.	.	.	.	.	.	.
4r	.	16dd\LL	.	16dd\LL	.	4r	.	.	4r	.	.	4r	.	.	4r	.	.	4r	4r
.	.	16cc#\	.	16cc#\	.	.	.	.	.	.	.	.	.	.	.	.	.	.	.
.	.	16b\	.	16b\	.	.	.	.	.	.	.	.	.	.	.	.	.	.	.
.	.	16a\JJ	.	16a\JJ	.	.	.	.	.	.	.	.	.	.	.	.	.	.	.
=13	=13	=13	=13	=13	=13	=13	=13	=13	=13	=13	=13	=13	=13	=13	=13	=13	=13	=13	=13
!	!	!	!	!	!	!	!	!	!	!	!	!	!	!	!	!	!	!LO:TX:a:t=8.	!
8G#X\L	6_	8g#X/L	.	8g#X/L	.	4e\	me-	Sca-	4e\	di-	Sca-	4ee\	jus-	Sca-	4ee\	mi-	Sca-	0.r	0.r
8F#\	.	8f#/	.	8f#/	.	.	.	.	.	.	.	.	.	.	.	.	.	.	.
8G#\	.	8g#/	.	8g#/	.	4e\	.	-bel-	4e\	.	-bel-	4ee\	-ti-	-bel-	4ee\	.	-bel-	.	.
8E\	.	8e/	.	8e/	.	.	.	.	.	.	.	.	.	.	.	.	.	.	.
8F#\	6_	8f#/	.	8f#/	.	4d\	-ae	-lum	4d\	-la-	-lum	4dd\	-tiae	-lum	4dd\	-hi	-lum	.	.
8G#\J	.	8g#/J	.	8g#/J	.	.	.	.	.	.	.	.	.	.	.	.	.	.	.
!	!	!	!	!LO:LB:g=original	!	!	!	!	!	!	!	!	!	!	!	!	!	!	!
=14	=14	=14	=14	=14	=14	=14	=14	=14	=14	=14	=14	=14	=14	=14	=14	=14	=14	=14	=14
8A\L	3	8a/L	.	8a/L	.	8c#\L	me-	pe-	8c#\L	-tas-	pe-	8cc#\L	me-	pe-	8cc#\L	mi-	pe-	.	.
8G#X\	5	8g#X/	.	8g#X/	.	8d\J	.	.	8d\J	.	.	8dd\J	.	.	8dd\J	.	.	.	.
8A\	3	8a/	.	8a/	.	4e\	-ae	-dum	4e\	-ti	-dum	4ee\	-ae	-dum	4ee\	-hi	-dum	.	.
8c#\	.	8cc#/	.	8cc#/	.	.	.	.	.	.	.	.	.	.	.	.	.	.	.
8B\	.	8b/	.	8b/	.	4r	.	.	4r	.	.	4r	.	.	4r	.	.	.	.
8A\J	.	8a/J	.	8a/J	.	.	.	.	.	.	.	.	.	.	.	.	.	.	.
!	!	!	!	!	!	!LO:LB:g=original	!	!	!LO:LB:g=original	!	!	!LO:LB:g=original	!	!	!LO:LB:g=original	!	!	!	!
=15	=15	=15	=15	=15	=15	=15	=15	=15	=15	=15	=15	=15	=15	=15	=15	=15	=15	=15	=15
8G#X\L	6_	8g#X/L	.	8g#X/L	.	4e\	in	pe-	4e\	mi-	pe-	4ee\	in	pe-	4ee\	fi-	pe-	.	.
8F#\	.	8f#/	.	8f#/	.	.	.	.	.	.	.	.	.	.	.	.	.	.	.
8G#\	.	8g#/	.	8g#/	.	4e\	tri-	-dum	4e\	-hi	-dum	4ee\	tri-	-dum	4ee\	.	-dum	.	.
8E\	.	8e/	.	8e/	.	.	.	.	.	.	.	.	.	.	.	.	.	.	.
!	!	!	!	!	!	!	!	!	!	!	!	!	!	!	!LO:SIC:v:l:s=-lii	!	!	!	!
8F#\	6_	8f#/	.	8f#/	.	4d\	-bu-	tu-	4d\	fi-	tu-	4dd\	-bu-	tu-	4dd\	-li	tu-	.	.
8G#\J	.	8g#/J	.	8g#/J	.	.	.	.	.	.	.	.	.	.	.	.	.	.	.
=16	=16	=16	=16	=16	=16	=16	=16	=16	=16	=16	=16	=16	=16	=16	=16	=16	=16	=16	=16
8A\L	3_	8a/L	.	8a/L	.	8c#\L	-la-	-o-	8c#\L	-li-	-o-	8cc#\L	-la-	-o-	8cc#\L	ho-	-o-	.	.
8G#X\	.	8g#X/	.	8g#X/	.	8B\J	-ti-	.	8B\J	-i	.	8b\J	-ti-	.	8b\J	-mi-	.	.	.
8A\	X	8a/	.	8a/	.	4c#\	-o-	-rum	4c#\	ho-	-rum	4cc#\	-o-	-rum	4cc#\	-num	-rum	.	.
8A\	.	8a/	.	8a/	.	.	.	.	.	.	.	.	.	.	.	.	.	.	.
8B\	.	8b/	.	8b/	.	8d\L	-ne	Sca-	4e\	-mi-	Sca-	8dd\L	-ne	Sca-	8dd\L	us-	Sca-	.	.
8c#\J	.	8cc#/J	.	8cc#/J	.	8e\J	.	.	.	.	.	8ee\J	.	.	8ee\J	-que-	.	.	.
!LO:LB:g=original	!	!LO:LB:g=original	!	!	!	!	!	!	!	!	!	!	!	!	!	!	!	!	!
=17	=17	=17	=17	=17	=17	=17	=17	=17	=17	=17	=17	=17	=17	=17	=17	=17	=17	=17	=17
8d\L	.	8dd\L	.	8dd\L	.	2f#\	di-	-bel-	2f#\	-num	-bel-	2ff#\	di-	-bel-	2ff#\	-quo	-bel-	0.r	0.r
8c#\	.	8cc#\	.	8cc#\	.	.	.	.	.	.	.	.	.	.	.	.	.	.	.
8d\	.	8dd\	.	8dd\	.	.	.	.	.	.	.	.	.	.	.	.	.	.	.
8B\	.	8b\	.	8b\	.	.	.	.	.	.	.	.	.	.	.	.	.	.	.
8c#\	.	8cc#\	.	8cc#\	.	4e\	-la-	-lum	4e\	us-	-lum	4ee\	-la-	-lum	4ee\	gra-	-lum	.	.
8A\J	.	8a\J	.	8a\J	.	.	.	.	.	.	.	.	.	.	.	.	.	.	.
=18	=18	=18	=18	=18	=18	=18	=18	=18	=18	=18	=18	=18	=18	=18	=18	=18	=18	=18	=18
!LO:TX:t=P:problem:mixed beam	!	!	!	!	!	!	!	!	!	!	!	!	!	!	!	!	!	!	!
8B\L	.	8b/L	.	8b/L	.	4d\	-tas-	pe-	4d\	-que-	pe-	4dd\	-taſ-	pe-	4dd\	-vi	pe-	.	.
8G#X\	.	8g#X/	.	8g#X/	.	.	.	.	.	.	.	.	.	.	.	.	.	.	.
8A\	.	8a/	.	8a/	.	4c#\	.	-dum	4c#\	-quo	-dum	4cc#\	.	-dum	4cc#\	cor-	-dum	.	.
8AA/J	.	8A/J	.	8A/J	.	.	.	.	.	.	.	.	.	.	.	.	.	.	.
*	*	*	*	*	*	*	*	*ij	*	*	*ij	*	*	*	*	*	*ij	*	*
8A\L	.	8a\L	.	8a\L	.	4e\	-ti	pe-	4e\	gra-	pe-	4ee\	-ti	pe-	8dd\L	-de	pe-	.	.
16B\L	.	16b\L	.	16b\L	.	.	.	.	.	.	.	.	.	.	8ee\J	.	.	.	.
16c#\JJ	.	16cc#\JJ	.	16cc#\JJ	.	.	.	.	.	.	.	.	.	.	.	.	.	.	.
!	!	!	!	!LO:LB:g=original	!	!	!	!	!	!	!	!	!	!	!	!	!	!	!
=19	=19	=19	=19	=19	=19	=19	=19	=19	=19	=19	=19	=19	=19	=19	=19	=19	=19	=19	=19
8d\L	.	8dd\L	.	8dd\L	.	2f#\	mi-	-dum	2f#\	.	-dum	2ff#\	mi-	-dum	2ff#\	ut	-dum	.	.
*	*	*	*	*	*	*	*	*Xij	*	*	*Xij	*	*	*	*	*	*Xij	*	*
8c#\	.	8cc#\	.	8cc#\	.	.	.	.	.	.	.	.	.	.	.	.	.	.	.
8d\	.	8dd\	.	8dd\	.	.	.	.	.	.	.	.	.	.	.	.	.	.	.
8B\	.	8b\	.	8b\	.	.	.	.	.	.	.	.	.	.	.	.	.	.	.
8c#\	.	8cc#\	.	8cc#\	.	4e\	-hi	tu-	4e\	-vi	tu-	4ee\	-hi	tu-	4ee\	quid	tu-	.	.
8A\J	.	8a\J	.	8a\J	.	.	.	.	.	.	.	.	.	.	.	.	.	.	.
!	!	!	!	!	!	!LO:LB:g=original	!	!	!LO:LB:g=original	!	!	!LO:LB:g=original	!	!	!LO:LB:g=original	!	!	!	!
=20	=20	=20	=20	=20	=20	=20	=20	=20	=20	=20	=20	=20	=20	=20	=20	=20	=20	=20	=20
!LO:TX:t=P:problem:mixed beam	!	!	!	!	!	!	!	!	!	!	!	!	!	!	!	!	!	!	!
8B\L	.	8b/L	.	8b/L	.	4d\	fi-	-o-	4d\	cor-	-o-	4dd\	mi-	-o-	4dd\	di-	-o-	.	.
8G#X\	.	8g#X/	.	8g#X/	.	.	.	.	.	.	.	.	.	.	.	.	.	.	.
8A\	.	8a/	.	8a/	.	4c#\	-li-	-rum	4c#\	-de	-rum	4cc#\	.	-rum	4cc#\	-li-	-rum	.	.
8AA/J	.	8A/J	.	8A/J	.	.	.	.	.	.	.	.	.	.	.	.	.	.	.
8A\L	.	8a\L	.	8a/L	.	4e\	-i	tu-	4e\	ut	tu-	4ee\	-hi	tu-	4ee\	-gitis	tu-	.	.
16B\L	.	16b\L	.	16b/L	.	.	.	.	.	.	.	.	.	.	.	.	.	.	.
16c#\JJ	.	16cc#\JJ	.	16cc#/JJ	.	.	.	.	.	.	.	.	.	.	.	.	.	.	.
=21	=21	=21	=21	=21	=21	=21	=21	=21	=21	=21	=21	=21	=21	=21	=21	=21	=21	=21	=21
!LO:TX:t=P:problem:mixed beam	!	!	!	!	!	!	!	!	!	!	!	!	!	!	!	!	!	!	!
8d\L	.	16dd\LL	.	16dd\LL	.	8d\L	ho-	-o-	8d\L	quid	-o-	8dd\L	mi-	-o-	8dd\L	va-	-o-	8r	8r
.	.	16ff#\	.	16ff#\	.	.	.	.	.	.	.	.	.	.	.	.	.	.	.
8D\	6	16ee\	.	16ee\	.	16c#\L	.	.	16c#\L	di-	.	16cc#\L	.	.	16cc#\L	-ni-	.	8dd\	8ff#\
.	.	16dd\JJ	.	16dd\JJ	.	16B\JJ	.	.	16B\JJ	.	.	16b\JJ	.	.	16b\JJ	.	.	.	.
8E\	4	4cc#\	.	4cc#\	.	4A\	.	.	4A/	-li-	.	4a\	.	.	4a\	-ta-	.	4ee\	4ee\
8E\	#	.	.	.	.	.	.	.	.	.	.	.	.	.	.	.	.	.	.
8EE/	.	4b\	.	4b\	.	4G#X\	-mi-	.	4G#X/	-gi-	.	4g#X\	.	.	4g#X\	.	.	4ee\	4ee\
8EE/J	.	.	.	.	.	.	.	.	.	.	.	.	.	.	.	.	.	.	.
!LO:LB:g=original	!	!LO:LB:g=original	!	!	!	!	!	!	!	!	!	!	!	!	!	!	!	!	!
=22	=22	=22	=22	=22	=22	=22	=22	=22	=22	=22	=22	=22	=22	=22	=22	=22	=22	=22	=22
!LO:TX:a:t=Solo	!	!	!	!	!	!	!	!	!	!	!	!	!	!	!	!	!	!	!
4AA/	.	16cc#\LL	.	16cc#\LL	.	4A\	-num	-rum	4A/	-tis	-rum	4a\	-hi	-rum	4a\	-tem	-rum	4a/	4ee\
.	.	16b\	.	16b\	.	.	.	.	.	.	.	.	.	.	.	.	.	.	.
.	.	16cc#\	.	16cc#\	.	.	.	.	.	.	.	.	.	.	.	.	.	.	.
.	.	16dd\JJ	.	16dd\JJ	.	.	.	.	.	.	.	.	.	.	.	.	.	.	.
4A\	.	16cc#\LL	.	16cc#\LL	.	4r	.	.	4r	.	.	4r	.	.	4r	.	.	4a/	4ee\
.	.	16dd\	.	16dd\	.	.	.	.	.	.	.	.	.	.	.	.	.	.	.
.	.	16ee\	.	16ee\	.	.	.	.	.	.	.	.	.	.	.	.	.	.	.
.	.	16ff#\JJ	.	16ff#\JJ	.	.	.	.	.	.	.	.	.	.	.	.	.	.	.
8r	.	16ee\LL	.	16ee\LL	.	4r	.	.	4r	.	.	4r	.	.	4r	.	.	8r	8r
.	.	16ff#\	.	16ff#\	.	.	.	.	.	.	.	.	.	.	.	.	.	.	.
8A\	.	16gg#X\	.	16gg#X\	.	.	.	.	.	.	.	.	.	.	.	.	.	8a/	8ee\
.	.	16aa\JJ	.	16aa\JJ	.	.	.	.	.	.	.	.	.	.	.	.	.	.	.
!	!	!	!	!LO:LB:g=original	!	!	!	!	!	!	!	!	!	!	!	!	!	!	!LO:LB:g=original
=23	=23	=23	=23	=23	=23	=23	=23	=23	=23	=23	=23	=23	=23	=23	=23	=23	=23	=23	=23
4G#X\	6 5	8dd\L	.	8dd\L	.	1.r	.	.	1.r	.	.	1.r	.	.	1.r	.	.	4ee\	4ee\
.	.	16cc#\L	.	16cc#\L	.	.	.	.	.	.	.	.	.	.	.	.	.	.	.
.	.	16dd\JJ	.	16dd\JJ	.	.	.	.	.	.	.	.	.	.	.	.	.	.	.
4A\	.	16cc#\LL	.	16cc#\LL	.	.	.	.	.	.	.	.	.	.	.	.	.	4a/	4ee\
.	.	16dd\	.	16dd\	.	.	.	.	.	.	.	.	.	.	.	.	.	.	.
.	.	16ee\	.	16ee\	.	.	.	.	.	.	.	.	.	.	.	.	.	.	.
.	.	16ff#\JJ	.	16ff#\JJ	.	.	.	.	.	.	.	.	.	.	.	.	.	.	.
8r	.	16ee\LL	.	16ee\LL	.	.	.	.	.	.	.	.	.	.	.	.	.	8r	8r
.	.	16ff#\	.	16ff#\	.	.	.	.	.	.	.	.	.	.	.	.	.	.	.
8c#\	6	16gg#X\	.	16gg#X\	.	.	.	.	.	.	.	.	.	.	.	.	.	8a/	8ee\
.	.	16aa\JJ	.	16aa\JJ	.	.	.	.	.	.	.	.	.	.	.	.	.	.	.
=24	=24	=24	=24	=24	=24	=24	=24	=24	=24	=24	=24	=24	=24	=24	=24	=24	=24	=24	=24
4d\	#4r 2	8gg#X\L	.	8gg#X\L	.	.	.	.	.	.	.	.	.	.	.	.	.	4ee\	4ee\
.	.	16ff#\L	.	16ff#\L	.	.	.	.	.	.	.	.	.	.	.	.	.	.	.
.	.	16gg#\JJ	.	16gg#\JJ	.	.	.	.	.	.	.	.	.	.	.	.	.	.	.
4c#\	6_	16aa\LL	.	16aa\LL	.	.	.	.	.	.	.	.	.	.	.	.	.	4a/	4ee\
.	.	16gg#\	.	16gg#\	.	.	.	.	.	.	.	.	.	.	.	.	.	.	.
.	.	16ff#\	.	16ff#\	.	.	.	.	.	.	.	.	.	.	.	.	.	.	.
.	.	16ee\JJ	.	16ee\JJ	.	.	.	.	.	.	.	.	.	.	.	.	.	.	.
8r	.	16dd\LL	.	16dd\LL	.	.	.	.	.	.	.	.	.	.	.	.	.	8r	8r
.	.	16cc#\	.	16cc#\	.	.	.	.	.	.	.	.	.	.	.	.	.	.	.
8c#\	.	16b\	.	16b\	.	.	.	.	.	.	.	.	.	.	.	.	.	8a/	8ee\
.	X	16a\JJ	.	16a\JJ	.	.	.	.	.	.	.	.	.	.	.	.	.	.	.
=25	=25	=25	=25	=25	=25	=25	=25	=25	=25	=25	=25	=25	=25	=25	=25	=25	=25	=25	=25
8d\L	6	8dd\L	.	8ff#\L	.	2.r	.	.	2.r	.	.	2.r	.	.	2.r	.	.	4dd\	4ff#\
8d\	.	16cc#\L	.	16ee\L	.	.	.	.	.	.	.	.	.	.	.	.	.	.	.
.	.	16b\JJ	.	16dd\JJ	.	.	.	.	.	.	.	.	.	.	.	.	.	.	.
8e\	4	8a/L	.	8cc#\L	.	.	.	.	.	.	.	.	.	.	.	.	.	4ee\	4ee\
8e\	.	8cc#/J	.	8aa\	.	.	.	.	.	.	.	.	.	.	.	.	.	.	.
!	!	!LO:LB:g=original	!	!	!	!	!	!	!	!	!	!	!	!	!	!	!	!	!
8E\	#	8g#X/L	.	8b\	.	.	.	.	.	.	.	.	.	.	.	.	.	4ee\	4ee\
8E\J	.	8b/J	.	8gg#X\J	.	.	.	.	.	.	.	.	.	.	.	.	.	.	.
!	!	!	!	!	!	!	!	!	!	!	!	!	!	!	!	!	!	!LO:LB:g=original	!
=26	=26	=26	=26	=26	=26	=26	=26	=26	=26	=26	=26	=26	=26	=26	=26	=26	=26	=26	=26
!LO:TX:a:t=tutti	!	!	!	!LO:TX:t=P:problem:mixed beam	!	!	!	!	!	!	!	!	!	!	!	!	!	!	!
8A\L	.	16eLL 16c#/	.	8aa\L	.	2.A\	us-	Vir-	2.e\	Va-	Vir-	2.a\	Fi-	Vir-	2.cc#\	et	Vir-	2.a/	2.ee\
.	.	16e 16c#/	.	.	.	.	.	.	.	.	.	.	.	.	.	.	.	.	.
8A\	.	16e 16c#/	.	16a/L	.	.	.	.	.	.	.	.	.	.	.	.	.	.	.
.	.	16eJJ 16c#/	.	16g/JJ	.	.	.	.	.	.	.	.	.	.	.	.	.	.	.
*	*	*tremolo	*	*	*	*	*	*	*	*	*	*	*	*	*	*	*	*	*
8A\	.	16e 16c#/LL	.	8g/L	.	.	.	.	.	.	.	.	.	.	.	.	.	.	.
.	.	16e 16c#/	.	.	.	.	.	.	.	.	.	.	.	.	.	.	.	.	.
8A\	.	16e 16c#/	.	8e/	.	.	.	.	.	.	.	.	.	.	.	.	.	.	.
.	.	16e 16c#/JJ	.	.	.	.	.	.	.	.	.	.	.	.	.	.	.	.	.
8A\	.	16e 16c#/LL	.	8a/	.	.	.	.	.	.	.	.	.	.	.	.	.	.	.
.	.	16e 16c#/	.	.	.	.	.	.	.	.	.	.	.	.	.	.	.	.	.
8A\J	.	16e 16c#/	.	8cc#/J	.	.	.	.	.	.	.	.	.	.	.	.	.	.	.
.	.	16e 16c#/JJ	.	.	.	.	.	.	.	.	.	.	.	.	.	.	.	.	.
!	!	!	!	!LO:LB:g=original	!	!	!	!	!	!	!	!	!	!	!	!	!	!	!
=27	=27	=27	=27	=27	=27	=27	=27	=27	=27	=27	=27	=27	=27	=27	=27	=27	=27	=27	=27
*tremolo	*	*	*	*	*	*	*	*	*	*	*	*	*	*	*	*	*	*	*
8A\L	.	16e 16c#/LL	.	8ee\L	.	2.A\	-que-	-gam	2.e\	-ni-	-gam	2.a\	-lii	-gam	2.cc#\	quae-	-gam	2.a/	2.ee\
.	.	16e 16c#/	.	.	.	.	.	.	.	.	.	.	.	.	.	.	.	.	.
8A\	.	16e 16c#/	.	16cc#\L	.	.	.	.	.	.	.	.	.	.	.	.	.	.	.
.	.	16e 16c#/	.	16b\JJ	.	.	.	.	.	.	.	.	.	.	.	.	.	.	.
8A\	.	16e 16c#/	.	8cc#\L	.	.	.	.	.	.	.	.	.	.	.	.	.	.	.
.	.	16e 16c#/	.	.	.	.	.	.	.	.	.	.	.	.	.	.	.	.	.
8A\	.	16e 16c#/	.	8a\	.	.	.	.	.	.	.	.	.	.	.	.	.	.	.
.	.	16e 16c#/	.	.	.	.	.	.	.	.	.	.	.	.	.	.	.	.	.
8A\	.	16e 16c#/	.	8cc#\	.	.	.	.	.	.	.	.	.	.	.	.	.	.	.
.	.	16e 16c#/	.	.	.	.	.	.	.	.	.	.	.	.	.	.	.	.	.
8A\J	.	16e 16c#/	.	8ee\J	.	.	.	.	.	.	.	.	.	.	.	.	.	.	.
.	.	16e 16c#/JJ	.	.	.	.	.	.	.	.	.	.	.	.	.	.	.	.	.
*Xtremolo	*	*	*	*	*	*	*	*	*	*	*	*	*	*	*	*	*	*	*
!LO:LB:g=original	!	!	!	!	!	!LO:LB:g=original	!	!	!LO:LB:g=original	!	!	!LO:LB:g=original	!	!	!LO:LB:g=original	!	!	!	!
=28	=28	=28	=28	=28	=28	=28	=28	=28	=28	=28	=28	=28	=28	=28	=28	=28	=28	=28	=28
8A\L	.	16e 16c#/LL	.	8aa\L	.	4A\	-quo	Vir-	4e\	-ta-	vir-	4a\	ho-	Vir-	4cc#\	.	Vir-	2.a/	2.ee\
.	.	16e 16c#/	.	.	.	.	.	.	.	.	.	.	.	.	.	.	.	.	.
8A\	.	16e 16c#/	.	16ee\L	.	.	.	.	.	.	.	.	.	.	.	.	.	.	.
.	.	16e 16c#/	.	16ff#\JJ	.	.	.	.	.	.	.	.	.	.	.	.	.	.	.
8A\	.	16e 16c#/	.	8ee\L	.	4A\	gra-	-gam	4e\	-tem	-gam	4a\	-mi-	-gam	4cc#\	-ri-	-gam	.	.
.	.	16e 16c#/	.	.	.	.	.	.	.	.	.	.	.	.	.	.	.	.	.
8A\	.	16e 16c#/	.	8cc#\	.	.	.	.	.	.	.	.	.	.	.	.	.	.	.
.	.	16e 16c#/	.	.	.	.	.	.	.	.	.	.	.	.	.	.	.	.	.
8A\	.	16e 16c#/	.	8aa\	.	4A\	-vi	Vir-	4e\	et	Vir-	4a\	-num	Vir-	4cc#\	-tis	Vir-	.	.
.	.	16e 16c#/	.	.	.	.	.	.	.	.	.	.	.	.	.	.	.	.	.
8A\J	.	16e 16c#/	.	8ee\J	.	.	.	.	.	.	.	.	.	.	.	.	.	.	.
.	.	16e 16c#/JJ	.	.	.	.	.	.	.	.	.	.	.	.	.	.	.	.	.
*	*	*Xtremolo	*	*	*	*	*	*	*	*	*	*	*	*	*	*	*	*	*
=29	=29	=29	=29	=29	=29	=29	=29	=29	=29	=29	=29	=29	=29	=29	=29	=29	=29	=29	=29
*tremolo	*	*	*	*	*	*	*	*	*	*	*	*	*	*	*	*	*	*	*
!	!	!LO:TX:t=P:problem:mixed beam	!	!	!	!	!	!	!	!	!	!	!	!	!	!	!	!	!
8G#X\L	6 5	8B/L	.	16dd\LL	.	2G#X\	cor-	-tu-	2e\	quae-	-tu-	2b\	us-	-tu-	2dd\	men-	-tu-	2.ee\	2.ee\
.	.	.	.	16b\	.	.	.	.	.	.	.	.	.	.	.	.	.	.	.
8G#X\	.	8b\	.	16cc#\	.	.	.	.	.	.	.	.	.	.	.	.	.	.	.
.	.	.	.	16dd\JJ	.	.	.	.	.	.	.	.	.	.	.	.	.	.	.
8G#X\	.	8b\	.	16ee\LL	.	.	.	.	.	.	.	.	.	.	.	.	.	.	.
.	.	.	.	16ff#\	.	.	.	.	.	.	.	.	.	.	.	.	.	.	.
8G#X\	.	8b\	.	16gg#X\	.	.	.	.	.	.	.	.	.	.	.	.	.	.	.
.	.	.	.	16aa\JJ	.	.	.	.	.	.	.	.	.	.	.	.	.	.	.
8G#X\	.	8b\	.	16bb\LL	.	4G#\	-de	-tis	4e\	-ri-	-tis	4b\	.	-tis	4dd\	-da-	-tis	.	.
.	.	.	.	16gg#\	.	.	.	.	.	.	.	.	.	.	.	.	.	.	.
8G#X\J	.	8b\J	.	16ee\	.	.	.	.	.	.	.	.	.	.	.	.	.	.	.
.	.	.	.	16dd\JJ	.	.	.	.	.	.	.	.	.	.	.	.	.	.	.
*Xtremolo	*	*	*	*	*	*	*	*	*	*	*	*	*	*	*	*	*	*	*
=30	=30	=30	=30	=30	=30	=30	=30	=30	=30	=30	=30	=30	=30	=30	=30	=30	=30	=30	=30
!	!	!	!	!	!	!	!	!	!	!	!	!	!	!	!LO:SIC:v:l:s=-ci-	!	!	!	!
4A\	4	8b\L	.	8dd\L	.	4A\	cor-	tu-	4e\	-tis	tu-	4a\	-que-	tu-	4dd\	-ti-	tu-	4a/	4ee\
.	.	16a\L	.	16cc#\L	.	.	.	.	.	.	.	.	.	.	.	.	.	.	.
.	.	16b\JJ	.	16dd\JJ	.	.	.	.	.	.	.	.	.	.	.	.	.	.	.
4AA/	3	16a/LL	.	16cc#\LL	.	4A\	-de	-ae	4e\	.	-ae	4a\	-quo	-ae	4cc#\	-um	-ae	4a/	4ee\
.	.	16c#/	.	16a\	.	.	.	.	.	.	.	.	.	.	.	.	.	.	.
.	.	16d/	.	16b\	.	.	.	.	.	.	.	.	.	.	.	.	.	.	.
.	.	16e/JJ	.	16cc#\JJ	.	.	.	.	.	.	.	.	.	.	.	.	.	.	.
4r	.	16f#/LL	.	16dd\LL	.	4r	.	.	4r	.	.	4r	.	.	4r	.	.	4r	4r
.	.	16g#X/	.	16ee\	.	.	.	.	.	.	.	.	.	.	.	.	.	.	.
.	.	16a/	.	16ff#\	.	.	.	.	.	.	.	.	.	.	.	.	.	.	.
.	.	16b/JJ	.	16gg#X\JJ	.	.	.	.	.	.	.	.	.	.	.	.	.	.	.
!	!	!LO:LB:g=original	!	!LO:LB:g=original	!	!	!	!	!	!	!	!	!	!	!	!	!	!	!LO:LB:g=original
=31	=31	=31	=31	=31	=31	=31	=31	=31	=31	=31	=31	=31	=31	=31	=31	=31	=31	=31	=31
*tremolo	*	*	*	*	*	*	*	*	*	*	*	*	*	*	*	*	*	*	*
!	!	!	!	!LO:TX:t=P:problem:mixed beam	!	!LO:SIC:v:l:s=e-:verse 2	!	!	!LO:SIC:v:l:s=e-:verse 2	!	!	!LO:SIC:v:l:s=e-:verse 2	!	!	!LO:SIC:v:l:s=e-:verse 2	!	!	!	!
8A\L	.	16eLL 16c#/	.	8aa\L	.	2.A\	ut	ae-	2.e\	men-	ae-	2.a\	gravi	ae-	2.cc#\	I-	ae-	2.a/	2.ee\
.	.	16e 16c#/	.	.	.	.	.	.	.	.	.	.	.	.	.	.	.	.	.
8A\	.	16e 16c#/	.	16a/L	.	.	.	.	.	.	.	.	.	.	.	.	.	.	.
.	.	16eJJ 16c#/	.	16g#X/JJ	.	.	.	.	.	.	.	.	.	.	.	.	.	.	.
*	*	*tremolo	*	*	*	*	*	*	*	*	*	*	*	*	*	*	*	*	*
8A\	.	16e 16c#/LL	.	8a/L	.	.	.	.	.	.	.	.	.	.	.	.	.	.	.
.	.	16e 16c#/	.	.	.	.	.	.	.	.	.	.	.	.	.	.	.	.	.
8A\	.	16e 16c#/	.	8e/	.	.	.	.	.	.	.	.	.	.	.	.	.	.	.
.	.	16e 16c#/JJ	.	.	.	.	.	.	.	.	.	.	.	.	.	.	.	.	.
8A\	.	16e 16c#/LL	.	8a/	.	.	.	.	.	.	.	.	.	.	.	.	.	.	.
.	.	16e 16c#/	.	.	.	.	.	.	.	.	.	.	.	.	.	.	.	.	.
8A\J	.	16e 16c#/	.	8cc#/J	.	.	.	.	.	.	.	.	.	.	.	.	.	.	.
.	.	16e 16c#/JJ	.	.	.	.	.	.	.	.	.	.	.	.	.	.	.	.	.
=32	=32	=32	=32	=32	=32	=32	=32	=32	=32	=32	=32	=32	=32	=32	=32	=32	=32	=32	=32
8A\L	.	16e 16c#/LL	.	8ee\L	.	2A\	quid	-mit-	2e\	-da-	-mit-	2a\	cor-	-mit-	2cc#\	-ras-	-mit-	2.a/	2.ee\
.	.	16e 16c#/	.	.	.	.	.	.	.	.	.	.	.	.	.	.	.	.	.
8A\	.	16e 16c#/	.	16cc#\L	.	.	.	.	.	.	.	.	.	.	.	.	.	.	.
.	.	16e 16c#/JJ	.	16b\JJ	.	.	.	.	.	.	.	.	.	.	.	.	.	.	.
8A\	.	16e 16c#/LL	.	8cc#\L	.	.	.	.	.	.	.	.	.	.	.	.	.	.	.
.	.	16e 16c#/	.	.	.	.	.	.	.	.	.	.	.	.	.	.	.	.	.
8A\	.	16e 16c#/	.	8a\	.	.	.	.	.	.	.	.	.	.	.	.	.	.	.
.	.	16e 16c#/	.	.	.	.	.	.	.	.	.	.	.	.	.	.	.	.	.
8A\	.	16e 16c#/	.	8cc#\	.	4A\	di-	-tet	4e\	.	-tet	4a\	-de	-tet	4cc#\	.	-tet	.	.
.	.	16e 16c#/	.	.	.	.	.	.	.	.	.	.	.	.	.	.	.	.	.
8A\J	.	16e 16c#/	.	8ee\J	.	.	.	.	.	.	.	.	.	.	.	.	.	.	.
.	.	16e 16c#/JJ	.	.	.	.	.	.	.	.	.	.	.	.	.	.	.	.	.
=33	=33	=33	=33	=33	=33	=33	=33	=33	=33	=33	=33	=33	=33	=33	=33	=33	=33	=33	=33
8A#X\L	6 5	16f# 16c#/LL	.	8cc#\L	.	4.G#X\	-li-	Do-	4.e\	.	Do-	4.f#\	cor-	Do-	4.cc#\	-ci-	Do-	4f#/	4ff#\
.	.	16f# 16c#/	.	.	.	.	.	.	.	.	.	.	.	.	.	.	.	.	.
8A#X\	.	16f# 16c#/	.	16ee\L	.	.	.	.	.	.	.	.	.	.	.	.	.	.	.
.	.	16f# 16c#/	.	16ff#\JJ	.	.	.	.	.	.	.	.	.	.	.	.	.	.	.
8A#X\	.	16f# 16c#/	.	8ee\L	.	.	.	.	.	.	.	.	.	.	.	.	.	4f#/	4ff#\
.	.	16f# 16c#/	.	.	.	.	.	.	.	.	.	.	.	.	.	.	.	.	.
!	!	!	!	!	!	!	!	!	!LO:SIC:v:l:s=-ci-	!	!	!	!	!	!	!	!	!	!
8A#X\	.	16f# 16c#/	.	8cc#\	.	8G#\	-gi-	-mi-	8e\	-ti-	-mi-	8f#\	.	-mi-	8cc#\	-mi-	-mi-	.	.
.	.	16f# 16c#/	.	.	.	.	.	.	.	.	.	.	.	.	.	.	.	.	.
8A#X\	.	16f# 16c#/	.	8ff#\	.	4A\	-tis	-nus	4e\	-um	-nus	4f#\	-de	-nus	4cc#\	-ni	-nus	4r	4r
.	.	16f# 16c#/	.	.	.	.	.	.	.	.	.	.	.	.	.	.	.	.	.
8A#X\J	.	16f# 16c#/	.	8ee\J	.	.	.	.	.	.	.	.	.	.	.	.	.	.	.
.	.	16f# 16c#/JJ	.	.	.	.	.	.	.	.	.	.	.	.	.	.	.	.	.
*Xtremolo	*	*Xtremolo	*	*	*	*	*	*	*	*	*	*	*	*	*	*	*	*	*
!	!	!	!	!	!	!LO:LB:g=original	!	!	!LO:LB:g=original	!	!	!LO:LB:g=original	!	!	!LO:LB:g=original	!	!	!	!
=34	=34	=34	=34	=34	=34	=34	=34	=34	=34	=34	=34	=34	=34	=34	=34	=34	=34	=34	=34
!	!	!	!	!	!	!LO:TX:b:t=P:problem:brak pierwszego tekstu w taktach 34-37	!	!	!	!	!	!	!	!	!	!	!	!LO:TX:a:t=1	!
8B\L	.	8f#/L	.	16ee\LL	.	8B\	.	Do-	8f#\	I-	Do-	8f#\	ut	Do-	8dd\	et	Do-	2.r	2.r
.	.	.	.	16dd\	.	.	.	.	.	.	.	.	.	.	.	.	.	.	.
8B\	.	8f#/	.	16cc#\	.	8B\	.	-mi-	8f#\	-ras-	-mi-	8f#\	quid	-mi-	8dd\	no-	-mi-	.	.
.	.	.	.	16dd\JJ	.	.	.	.	.	.	.	.	.	.	.	.	.	.	.
8E\	6	8e/	.	8cc#\L	.	4E\	.	-nus	4g\	-ci-	-nus	4e\	di-	-nus	4cc#\	-li-	-nus	.	.
8E\	.	8e/	.	8cc#\J	.	.	.	.	.	.	.	.	.	.	.	.	.	.	.
8E#X\	5_	8d/	.	16b\LL	.	4E#X\	.	ex	4g\	-mi-	ex	4d\	-li-	ex	4b\	-te	ex	.	.
.	.	.	.	16dd\	.	.	.	.	.	.	.	.	.	.	.	.	.	.	.
8E#\J	.	8d/J	.	16cc#\	.	.	.	.	.	.	.	.	.	.	.	.	.	.	.
.	X	.	.	16b\JJ	.	.	.	.	.	.	.	.	.	.	.	.	.	.	.
!LO:LB:g=original	!	!	!	!	!	!	!	!	!	!	!	!	!	!	!	!	!	!	!
=35	=35	=35	=35	=35	=35	=35	=35	=35	=35	=35	=35	=35	=35	=35	=35	=35	=35	=35	=35
!LO:TX:t=P:problem:mixed beam	!	!	!	!	!	!	!	!	!	!	!	!	!	!	!	!	!	!	!
8F#\L	4	8d/L	.	8b\L	.	4F#\	.	Si-	4f#\	-ni	Si-	4d\	-gi-	Si-	4b\	pec-	Si-	4r	4r
8F#\	.	16c#/L	.	16a#X\L	.	.	.	.	.	.	.	.	.	.	.	.	.	.	.
.	.	16d/JJ	.	16b\JJ	.	.	.	.	.	.	.	.	.	.	.	.	.	.	.
!	!	!LO:TX:t=P:problem:mixed beam	!	!LO:LB:g=original	!	!	!	!	!	!	!	!	!	!	!	!	!	!	!
8FF#/	#	8c#/L	.	8a#X\L	.	4F#\	.	-on	4f#\	et	-on	4c#\	-tis	-on	4a#X\	-ca-	-on	4f#/	4ff#\
8FF#/	.	8c#/	.	16cc#\L	.	.	.	.	.	.	.	.	.	.	.	.	.	.	.
.	.	.	.	16ee\JJ	.	.	.	.	.	.	.	.	.	.	.	.	.	.	.
*	*	*	*	*	*	*	*	*ij	*	*	*ij	*	*	*ij	*	*	*ij	*	*
8A#X\	6 5	8cc#\	.	16ff#\LL	.	8A#X\	.	Do-	8e\	no-	Do-	8f#\	va-	Do-	8cc#\	-re	Do-	4f#/	4ff#\
.	.	.	.	16gg\	.	.	.	.	.	.	.	.	.	.	.	.	.	.	.
8A#\J	.	8cc#\J	.	16ff#\	.	8A#\	.	-mi-	8e\	-li-	-mi-	8f#\	-ni-	-mi-	8cc#\	quae	-mi-	.	.
.	.	.	.	16ee\JJ	.	.	.	.	.	.	.	.	.	.	.	.	.	.	.
=36	=36	=36	=36	=36	=36	=36	=36	=36	=36	=36	=36	=36	=36	=36	=36	=36	=36	=36	=36
8B\L	.	8f#/L	.	8dd\L	.	2B\	.	-nus	2d\	-te	-nus	2b\	-ta-	-nus	2dd\	quae	-nus	4f#/	4ff#\
8B\	.	8f#/	.	16dd\L	.	.	.	.	.	.	.	.	.	.	.	.	.	.	.
.	.	.	.	16cc#\JJ	.	.	.	.	.	.	.	.	.	.	.	.	.	.	.
8B\	.	8f#/	.	8dd\L	.	.	.	.	.	.	.	.	.	.	.	.	.	4r	4r
8B\	.	8f#/	.	8dd\J	.	.	.	.	.	.	.	.	.	.	.	.	.	.	.
.	.	.	.	8qff#/	.	.	.	.	.	.	.	.	.	.	.	.	.	.	.
8G\	6\_ 5_	8b/	.	8ee#X\L	.	4G\	.	ex	4c#\	pec-	ex	4b\	.	ex	4ee#X\	di-	ex	4r	4r
8G\J	.	8b/J	.	16dd\L	.	.	.	.	.	.	.	.	.	.	.	.	.	.	.
.	X X	.	.	16ee#\JJ	.	.	.	.	.	.	.	.	.	.	.	.	.	.	.
!	!	!LO:LB:g=original	!	!	!	!	!	!	!	!	!	!	!	!	!	!	!	!	!
=37	=37	=37	=37	=37	=37	=37	=37	=37	=37	=37	=37	=37	=37	=37	=37	=37	=37	=37	=37
4F#\	#	8a#X/L	.	8ff#\L	.	4F#\	.	Si-	4c#\	-ca-	Si-	4a#X\	.	Si-	4ff#\	-ci-	Si-	4f#/	4ff#\
.	.	16a#/L	.	16cc#\L	.	.	.	.	.	.	.	.	.	.	.	.	.	.	.
.	.	16b/JJ	.	16dd\JJ	.	.	.	.	.	.	.	.	.	.	.	.	.	.	.
4FF#/	.	8a#/L	.	16cc#\LL	.	4F#\	.	-on	4c#\	-re	-on	4a#\	-tem	-on	4ff#\	-tis	-on	4f#/	4ff#\
*	*	*	*	*	*	*	*	*Xij	*	*	*Xij	*	*	*Xij	*	*	*Xij	*	*
.	.	.	.	16dd\	.	.	.	.	.	.	.	.	.	.	.	.	.	.	.
.	.	8a#/J	.	16een\	.	.	.	.	.	.	.	.	.	.	.	.	.	.	.
.	.	.	.	16cc#\JJ	.	.	.	.	.	.	.	.	.	.	.	.	.	.	.
8r	.	16f#/LL	.	16ff#\LL	.	8r	.	.	8r	.	.	8r	.	.	8r	.	.	4r	4r
.	.	16g/	.	16gg\	.	.	.	.	.	.	.	.	.	.	.	.	.	.	.
!	!	!	!	!	!	!LO:SIC:v:l:s=e-:verse 2	!	!	!LO:SIC:v:l:s=e-:verse 2	!	!	!LO:SIC:v:l:s=e-:verse 2	!	!	!	!	!	!	!
8A#X\	6 n5r	16f#/	.	16ff#\	.	8A#X\	.	ae	8B\	quae	ae-	8f#\	et	e-	8een\	in	e-	.	.
.	.	16e/JJ	.	16ee\JJ	.	.	.	.	.	.	.	.	.	.	.	.	.	.	.
!	!	!	!	!	!	!LO:LB:g=original	!	!	!LO:LB:g=original	!	!	!LO:LB:g=original	!	!	!LO:LB:g=original	!	!	!	!
=38	=38	=38	=38	=38	=38	=38	=38	=38	=38	=38	=38	=38	=38	=38	=38	=38	=38	=38	=38
*	*	*tremolo	*	*	*	*	*	*	*	*	*	*	*	*	*	*	*	*	*
!LO:TX:t=P:problem:mixed beam	!	!	!	!	!	!	!	!	!	!	!	!	!	!	!	!	!	!LO:TX:a:t=4.	!
8B\L	#_	16d#X/LL	.	16dd#X\LL	.	2B\	Va-	mit-	2B\	quae	-mit-	2f#\	quae-	-mit-	2dd#X\	cordi-	-mit-	0.r	0.r
.	.	16d#X/	.	16dd#\	.	.	.	.	.	.	.	.	.	.	.	.	.	.	.
8BB/J	.	16d#X/	.	16dd#\	.	.	.	.	.	.	.	.	.	.	.	.	.	.	.
.	.	16d#X/JJ	.	16dd#\JJ	.	.	.	.	.	.	.	.	.	.	.	.	.	.	.
*	*	*	*	*tremolo	*	*	*	*	*	*	*	*	*	*	*	*	*	*	*
8D#X\L	.	16d#/LL	.	16dd#\LL	.	.	.	.	.	.	.	.	.	.	.	.	.	.	.
.	.	16d#/	.	16dd#\	.	.	.	.	.	.	.	.	.	.	.	.	.	.	.
8F#\	.	16d#/	.	16dd#\	.	.	.	.	.	.	.	.	.	.	.	.	.	.	.
.	X	16d#/JJ	.	16dd#\JJ	.	.	.	.	.	.	.	.	.	.	.	.	.	.	.
8B\	.	16d#/LL	.	16dd#\LL	.	8B\L	.	-tet	4B\	.	-tet	4f#\	.	-tet	4dd#\	-bus	-tet	.	.
.	.	16d#/	.	16dd#\	.	.	.	.	.	.	.	.	.	.	.	.	.	.	.
8An\J	.	16d#/	.	16dd#\	.	8An\J	-ni-	.	.	.	.	.	.	.	.	.	.	.	.
.	.	16d#/JJ	.	16dd#\JJ	.	.	.	.	.	.	.	.	.	.	.	.	.	.	.
*	*	*Xtremolo	*	*Xtremolo	*	*	*	*	*	*	*	*	*	*	*	*	*	*	*
!	!	!	!	!LO:LB:g=original	!	!	!	!	!	!	!	!	!	!	!	!	!	!	!
=39	=39	=39	=39	=39	=39	=39	=39	=39	=39	=39	=39	=39	=39	=39	=39	=39	=39	=39	=39
8G\L	6	16e/LL	.	16ee\LL	.	8G\	-ta-	Do-	8B\	di-	Do-	8g\	.	Do-	8ee\	ves-	Do-	.	.
.	.	16e/	.	16ee\	.	.	.	.	.	.	.	.	.	.	.	.	.	.	.
8F#\J	6\	16f#/	.	16ff#\	.	8F#\	.	-mi-	8B\	-ci-	-mi-	8a\	-ri-	-mi-	8dd#X\	.	-mi-	.	.
.	.	16f#/JJ	.	16ff#\JJ	.	.	.	.	.	.	.	.	.	.	.	.	.	.	.
4E\	.	16g/LL	.	16gg\LL	.	4E\	-tem	-nus	4B\	-tis	-nus	4f#\	-tis	-nus	4ee\	-tris	-nus	.	.
.	.	16g/	.	16gg\	.	.	.	.	.	.	.	.	.	.	.	.	.	.	.
.	.	16f#/	.	16ff#\	.	.	.	.	.	.	.	.	.	.	.	.	.	.	.
.	.	16f#/JJ	.	16ff#\JJ	.	.	.	.	.	.	.	.	.	.	.	.	.	.	.
!LO:LB:g=original	!	!	!	!	!	!	!	!	!	!	!	!	!	!	!	!	!	!	!
8r	.	16e/LL	.	16ee\LL	.	8r	.	.	8r	.	.	8r	.	.	8r	.	.	.	.
.	.	16e/	.	16ee\	.	.	.	.	.	.	.	.	.	.	.	.	.	.	.
*	*	*	*	*	*	*	*	*ij	*	*	*ij	*	*	*ij	*	*	*	*	*
!	!	!	!	!	!	!	!	!	!	!	!	!	!	!	!LO:SIC:v:l:s=com-:verse 1	!	!	!	!
!	!	!	!	!	!	!	!	!	!	!	!	!LO:SIC:v:l:s=e-:verse 2	!	!	!LO:SIC:v:l:s=e-:verse 2	!	!	!	!
8G#X\	6 n5r	16dn/	.	16ddn\	.	8G#X\	et	e-	8B\	in	e-	8e\	men-	ae-	8ddn\	cum	ae-	.	.
.	.	16d/JJ	.	16dd\JJ	.	.	.	.	.	.	.	.	.	.	.	.	.	.	.
=40	=40	=40	=40	=40	=40	=40	=40	=40	=40	=40	=40	=40	=40	=40	=40	=40	=40	=40	=40
*	*	*tremolo	*	*tremolo	*	*	*	*	*	*	*	*	*	*	*	*	*	*	*
!LO:TX:t=P:problem:mixed beam	!	!	!	!	!	!	!	!	!	!	!	!	!	!	!LO:SIC:v:l:s=com-:verse 1	!	!	!	!
8A\L	3_	16c#/LL	.	16cc#\LL	.	2A\	quae-	-mit-	2An\	cor-	-mit-	2e\	-da-	-mit-	2cc#\	cum-	-mit-	.	.
.	.	16c#/	.	16cc#\	.	.	.	.	.	.	.	.	.	.	.	.	.	.	.
8AA/	.	16c#/	.	16cc#\	.	.	.	.	.	.	.	.	.	.	.	.	.	.	.
.	.	16c#/JJ	.	16cc#\JJ	.	.	.	.	.	.	.	.	.	.	.	.	.	.	.
8C#/	.	16c#/LL	.	16cc#\LL	.	.	.	.	.	.	.	.	.	.	.	.	.	.	.
.	.	16c#/	.	16cc#\	.	.	.	.	.	.	.	.	.	.	.	.	.	.	.
8E/J	.	16c#/	.	16cc#\	.	.	.	.	.	.	.	.	.	.	.	.	.	.	.
.	.	16c#/JJ	.	16cc#\JJ	.	.	.	.	.	.	.	.	.	.	.	.	.	.	.
8A\L	.	16c#/LL	.	16cc#\LL	.	8A\L	.	-tet	4A\	.	-tet	4e\	.	-tet	4cc#\	-pun-	-tet	.	.
.	X	16c#/	.	16cc#\	.	.	.	.	.	.	.	.	.	.	.	.	.	.	.
8Gn\J	.	16c#/	.	16cc#\	.	8Gn\J	.	.	.	.	.	.	.	.	.	.	.	.	.
.	.	16c#/JJ	.	16cc#\JJ	.	.	.	.	.	.	.	.	.	.	.	.	.	.	.
*	*	*Xtremolo	*	*Xtremolo	*	*	*	*	*	*	*	*	*	*	*	*	*	*	*
=41	=41	=41	=41	=41	=41	=41	=41	=41	=41	=41	=41	=41	=41	=41	=41	=41	=41	=41	=41
8F#\L	6	16d/LL	.	16dd\LL	.	8F#\	.	Do-	8A\	.	Do-	8f#\	.	Do-	8dd\	-gi-	Do-	.	.
.	.	16d/	.	16dd\	.	.	.	.	.	.	.	.	.	.	.	.	.	.	.
!	!	!	!	!	!	!	!	!	!	!	!	!LO:SIC:v:l:s=-ci-	!	!	!	!	!	!	!
8E\J	6	16e/	.	16ee\	.	8E\	-ri-	-mi-	8A\	-di-	-mi-	8g\	-ti-	-mi-	8cc#\	-mi-	-mi-	.	.
.	.	16e/JJ	.	16ee\JJ	.	.	.	.	.	.	.	.	.	.	.	.	.	.	.
!	!	!LO:LB:g=original	!	!	!	!	!	!	!	!	!	!	!	!	!	!	!	!	!
4D\	.	16f#/LL	.	16ff#\LL	.	4D\	-tis	-nus	4A\	-bus	-nus	4f#\	-um	-nus	4dd\	-ni	-nus	.	.
*	*	*	*	*	*	*	*	*Xij	*	*	*Xij	*	*	*Xij	*	*	*	*	*
.	.	16f#/	.	16ff#\	.	.	.	.	.	.	.	.	.	.	.	.	.	.	.
.	.	16e/	.	16ee\	.	.	.	.	.	.	.	.	.	.	.	.	.	.	.
.	.	16e/JJ	.	16ee\JJ	.	.	.	.	.	.	.	.	.	.	.	.	.	.	.
8r	.	16d/LL	.	16dd\LL	.	8r	.	.	8r	.	.	8r	.	.	8r	.	.	.	.
.	.	16d/	.	16dd\	.	.	.	.	.	.	.	.	.	.	.	.	.	.	.
8F#\	6 n5r	16cn/	.	16ccn\	.	8E\	men-	ex	8A\	ves-	ex	8d\	glo-	ex	8ccn\	Glo-	ex	.	.
.	.	16c/JJ	.	16cc\JJ	.	.	.	.	.	.	.	.	.	.	.	.	.	.	.
!	!	!	!	!	!	!LO:LB:g=original	!	!	!	!	!	!LO:LB:g=original	!	!	!LO:LB:g=original	!	!	!LO:LB:g=original	!
=42	=42	=42	=42	=42	=42	=42	=42	=42	=42	=42	=42	=42	=42	=42	=42	=42	=42	=42	=42
8G\L	3	16B/LL	.	16b\LL	.	2G\	-da-	Si-	2B\	.	Si-	2d\	-ri-	Si-	2b\	-ri-	Si-	4r	4r
.	.	16B/	.	16b\	.	.	.	.	.	.	.	.	.	.	.	.	.	.	.
8G\	.	16d/	.	16dd\	.	.	.	.	.	.	.	.	.	.	.	.	.	.	.
.	.	16d/JJ	.	16dd\JJ	.	.	.	.	.	.	.	.	.	.	.	.	.	.	.
8G\	.	16B/LL	.	16b\LL	.	.	.	.	.	.	.	.	.	.	.	.	.	4d/	4dd\
.	.	16B/	.	16b\	.	.	.	.	.	.	.	.	.	.	.	.	.	.	.
8G\	.	16d/	.	16dd\	.	.	.	.	.	.	.	.	.	.	.	.	.	.	.
.	.	16d/JJ	.	16dd\JJ	.	.	.	.	.	.	.	.	.	.	.	.	.	.	.
!	!	!	!	!LO:LB:g=original	!	!	!	!	!	!	!	!	!	!	!	!	!	!	!
8G\	#4r 2	16c#X/LL	.	16cc#X\LL	.	4G\	.	-on	4A\	-tris	-on	4e\	-a	-on	4cc#X\	-a	-on	4a/	4ee\
.	.	16c#/	.	16cc#\	.	.	.	.	.	.	.	.	.	.	.	.	.	.	.
8G\J	.	16e/	.	16ee\	.	.	.	.	.	.	.	.	.	.	.	.	.	.	.
.	.	16e/JJ	.	16ee\JJ	.	.	.	.	.	.	.	.	.	.	.	.	.	.	.
!	!	!	!	!	!	!	!	!	!LO:LB:g=original	!	!	!	!	!	!	!	!	!	!LO:LB:g=original
=43	=43	=43	=43	=43	=43	=43	=43	=43	=43	=43	=43	=43	=43	=43	=43	=43	=43	=43	=43
8F#\L	6	16d/LL	.	16dd\LL	.	(4F#\	.	Do-	2A\	glo-	Do-	(4f#\	Pa-	Do-	(4dd\	Pa-	do-	4dd\	4ff#\
.	.	16d/	.	16dd\	.	.	.	.	.	.	.	.	.	.	.	.	.	.	.
8F#\	.	16f#/	.	16ff#\	.	.	.	.	.	.	.	.	.	.	.	.	.	.	.
.	.	16f#/JJ	.	16ff#\JJ	.	.	.	.	.	.	.	.	.	.	.	.	.	.	.
8C#X\	6 5	16e/LL	.	16ee\LL	.	4C#X/)	-ci-	.	.	.	.	4g\)	.	.	4ee\)	-tri	.	4ee\	4gg\
.	.	16e/	.	16ee\	.	.	.	.	.	.	.	.	.	.	.	.	.	.	.
8C#\	.	16g/	.	16gg\	.	.	.	.	.	.	.	.	.	.	.	.	.	.	.
.	.	16g/JJ	.	16gg\JJ	.	.	.	.	.	.	.	.	.	.	.	.	.	.	.
8D\	.	16f#/LL	.	16ff#\LL	.	4D\	-um	-mi-	4A\	.	-mi-	4a\	-tri	-mi-	4ff#\	et	-mi-	4ff#\	4aa\
.	.	16f#/	.	16ff#\	.	.	.	.	.	.	.	.	.	.	.	.	.	.	.
8D\J	.	16a/	.	16aa\	.	.	.	.	.	.	.	.	.	.	.	.	.	.	.
.	.	16a/JJ	.	16aa\JJ	.	.	.	.	.	.	.	.	.	.	.	.	.	.	.
!LO:LB:g=original	!	!	!	!	!	!	!	!	!	!	!	!	!	!	!	!	!	!	!
=44	=44	=44	=44	=44	=44	=44	=44	=44	=44	=44	=44	=44	=44	=44	=44	=44	=44	=44	=44
8G\L	6_	16g/LL	.	16gg\LL	.	4G\	men-	-na-	4B\	.	-na-	4g\	Pa-	-na-	4ee\	fi-	-na-	2ee\	4gg\
.	.	16g/	.	16gg\	.	.	.	.	.	.	.	.	.	.	.	.	.	.	.
8G\	.	16e/	.	16ee\	.	.	.	.	.	.	.	.	.	.	.	.	.	.	.
.	.	16e/JJ	.	16ee\JJ	.	.	.	.	.	.	.	.	.	.	.	.	.	.	.
8G\	.	16g/LL	.	16gg\LL	.	4G\	.	-re	4B\	-ri-	-re	4g\	-tri	-re	4ee\	-li-	-re	.	4gg\
.	.	16g/	.	16gg\	.	.	.	.	.	.	.	.	.	.	.	.	.	.	.
8G\	.	16e/	.	16ee\	.	.	.	.	.	.	.	.	.	.	.	.	.	.	.
.	.	16e/JJ	.	16ee\JJ	.	.	.	.	.	.	.	.	.	.	.	.	.	.	.
!	!	!LO:LB:g=original	!	!	!	!	!	!	!	!	!	!	!	!	!	!	!	!	!
8G#X\	5	16f#/LL	.	16ff#\LL	.	4G#X\	.	in	4B\	-a	in	4f#\	et	in	4dd\	-o	in	4dd\	4ff#\
.	.	16f#/	.	16ff#\	.	.	.	.	.	.	.	.	.	.	.	.	.	.	.
8G#\J	.	16d/	.	16dd\	.	.	.	.	.	.	.	.	.	.	.	.	.	.	.
.	.	16d/JJ	.	16dd\JJ	.	.	.	.	.	.	.	.	.	.	.	.	.	.	.
=45	=45	=45	=45	=45	=45	=45	=45	=45	=45	=45	=45	=45	=45	=45	=45	=45	=45	=45	=45
4A\	4	8f#/L	.	8dd\L	.	8A\	-da-	me-	8A\	Pa-	me-	8f#\	fi-	me-	8dd\	fi-	me-	4dd\	4ff#\
.	.	16e/L	.	16cc#\L	.	8A\	-ci-	-di-	8A\	.	-di-	8f#\	-li-	-di-	8dd\	-li-	-di-	.	.
.	.	16f#/JJ	.	16dd\JJ	.	.	.	.	.	.	.	.	.	.	.	.	.	.	.
4AA/	3	8e/L	.	8cc#\L	.	4AA/	-um	-o	4A\	-tri	-o	4e\	-o	-o	4cc#\	-o	-o	4a/	4ee\
.	.	8a/J	.	8a\J	.	.	.	.	.	.	.	.	.	.	.	.	.	.	.
4r	.	16g/LL	.	16g/LL	.	4r	.	.	4r	.	.	4r	.	.	4r	.	.	4r	4r
.	.	16f#/	.	16f#/	.	.	.	.	.	.	.	.	.	.	.	.	.	.	.
.	.	16e/	.	16e/	.	.	.	.	.	.	.	.	.	.	.	.	.	.	.
!	!	!	!	!LO:TX:b:i:t=Verte	!	!	!	!	!	!	!	!	!	!	!	!	!	!	!
.	.	16d/JJ	.	16d/JJ	.	.	.	.	.	.	.	.	.	.	.	.	.	.	.
!	!	!	!	!LO:PB:g=original	!	!	!	!	!	!	!	!	!	!	!	!	!	!	!
=46	=46	=46	=46	=46	=46	=46	=46	=46	=46	=46	=46	=46	=46	=46	=46	=46	=46	=46	=46
!	!	!	!	!	!	!	!	!	!	!	!	!	!	!	!	!	!	!LO:TX:a:t=7	!
8C#/L	6_	8c#/L	.	8c#/L	.	2A\	Glo-	Do-	2A\	et	Do-	2a\	et	Do-	2a\	et	Do-	0.r	0.r
8BB/	.	8B/	.	8B/	.	.	.	.	.	.	.	.	.	.	.	.	.	.	.
8C#/	.	8c#/	.	8c#/	.	.	.	.	.	.	.	.	.	.	.	.	.	.	.
8AA/	.	8A/	.	8A/	.	.	.	.	.	.	.	.	.	.	.	.	.	.	.
8BB/	6	8B/	.	8B/	.	4G\	-ria	-mi-	4G/	fi-	-mi-	4g\	spi-	-mi-	4g\	spi-	-mi-	.	.
8C#/J	.	8c#/J	.	8c#/J	.	.	.	.	.	.	.	.	.	.	.	.	.	.	.
!	!	!	!	!	!	!LO:LB:g=original	!	!	!	!	!	!LO:LB:g=original	!	!	!LO:LB:g=original	!	!	!	!
=47	=47	=47	=47	=47	=47	=47	=47	=47	=47	=47	=47	=47	=47	=47	=47	=47	=47	=47	=47
8D\L	3	8d/L	.	8d/L	.	8F#\L	Pa-	-na-	8F#/L	.	-na-	8f#\L	-ri-	-na-	8f#/L	-ri-	-na-	.	.
8C#\	.	8c#/	.	8c#/	.	8G\J	.	.	8G/J	-li-	.	8g\J	-tu-	.	8g/J	-tu-	.	.	.
8D\	.	8d/	.	8d/	.	4A\	-tri	-re	4A\	-o	-re	4a\	-i	-re	4a\	-i	-re	.	.
8F#\	.	8f#/	.	8f#/	.	.	.	.	.	.	.	.	.	.	.	.	.	.	.
8E\	.	8e/	.	8e/	.	4r	.	.	4r	.	.	4r	.	.	4r	.	.	.	.
8D\J	.	8d/J	.	8d/J	.	.	.	.	.	.	.	.	.	.	.	.	.	.	.
!	!	!	!	!	!	!	!	!	!LO:LB:g=original	!	!	!	!	!	!	!	!	!	!
=48	=48	=48	=48	=48	=48	=48	=48	=48	=48	=48	=48	=48	=48	=48	=48	=48	=48	=48	=48
8C#/L	6_	8c#/L	.	8c#/L	.	2A\	et	Do-	2A\	et	Do-	2a\	San-	Do-	2a\	Sanc-	Do-	.	.
8BB/	.	8B/	.	8B/	.	.	.	.	.	.	.	.	.	.	.	.	.	.	.
8C#/	.	8c#/	.	8c#/	.	.	.	.	.	.	.	.	.	.	.	.	.	.	.
8AA/	.	8A/	.	8A/	.	.	.	.	.	.	.	.	.	.	.	.	.	.	.
8BB/	6	8B/	.	8B/	.	4G\	.	-mi-	4G/	spi-	-mi-	4g\	-cto	-mi-	4g\	-to	-mi-	.	.
8C#/J	.	8c#/J	.	8c#/J	.	.	.	.	.	.	.	.	.	.	.	.	.	.	.
!LO:LB:g=original	!	!	!	!	!	!	!	!	!	!	!	!	!	!	!	!	!	!	!
=49	=49	=49	=49	=49	=49	=49	=49	=49	=49	=49	=49	=49	=49	=49	=49	=49	=49	=49	=49
8D\L	.	8d/L	.	8d/L	.	8F#\L	fi-	-na-	8F#/L	-ri-	-na-	8f#\L	si-	-na-	8f#/L	Si-	-na-	.	.
8C#\	.	8c#/	.	8c#/	.	8E\J	.	.	8E/J	.	.	8e\J	.	.	8e/J	-cut	.	.	.
8D\	.	8d/	.	8d/	.	4F#\	-li-	-re	4F#/	-tu-	-re	4f#\	.	-re	4f#/	e-	-re	.	.
8D\	.	8d/	.	8d/	.	.	.	.	.	.	.	.	.	.	.	.	.	.	.
8E\	.	8e/	.	8e/	.	8G\L	-o	in	8G/L	-i	in	8g\L	-cut	in	8g\L	-rat	in	.	.
8F#\J	.	8f#/J	.	8f#/J	.	8A\J	.	.	8A/J	.	.	8a\J	.	.	8a\J	.	.	.	.
!	!	!LO:LB:g=original	!	!	!	!	!	!	!	!	!	!	!	!	!	!	!	!	!
=50	=50	=50	=50	=50	=50	=50	=50	=50	=50	=50	=50	=50	=50	=50	=50	=50	=50	=50	=50
8G\L	.	8g/L	.	8g/L	.	2B\	et	me-	2B\	San-	me-	2b\	e-	me-	2b\	in	me-	1.r	1.r
8F#\	.	8f#/	.	8f#/	.	.	.	.	.	.	.	.	.	.	.	.	.	.	.
8G\	.	8g/	.	8g/	.	.	.	.	.	.	.	.	.	.	.	.	.	.	.
8E\	.	8e/	.	8e/	.	.	.	.	.	.	.	.	.	.	.	.	.	.	.
8F#\	.	8f#/	.	8f#/	.	4A\	spi-	.	4A\	-cto	.	4a\	-rat	.	4a\	prin-	.	.	.
8D\J	.	8d/J	.	8d/J	.	.	.	.	.	.	.	.	.	.	.	.	.	.	.
=51	=51	=51	=51	=51	=51	=51	=51	=51	=51	=51	=51	=51	=51	=51	=51	=51	=51	=51	=51
!LO:TX:t=P:problem:mixed beam	!	!LO:TX:t=P:problem:mixed beam	!	!LO:TX:t=P:problem:mixed beam	!	!	!	!	!	!	!	!	!	!	!	!	!	!	!
8E\L	.	8e/L	.	8e/L	.	8G\	-ri-	.	8G/	si-	.	8g\	in	.	8g\	-ci-	.	.	.
8C#\	.	8c#/	.	8c#/	.	8G\	-tu-	-di-	8G/	-cut	-di-	8g\	prin-	-di-	8g\	-pi-	-di-	.	.
8D\	.	8d/	.	8d/	.	4F#\	-i	-o	4F#/	e-	-o	4f#\	-ci-	-o	4f#/	-o	-o	.	.
8DD/J	.	8dd\J	.	8dd\J	.	.	.	.	.	.	.	.	.	.	.	.	.	.	.
!	!	!	!	!LO:LB:g=original	!	!	!	!	!	!	!	!LO:LB:g=original	!	!	!LO:LB:g=original	!	!	!	!
8D\L	.	8d/L	.	8d/L	.	4A\	San-	i-	4A\	-rat	i-	4a\	-pi-	i-	4a\	et	i-	.	.
16E\L	.	16e/L	.	16e/L	.	.	.	.	.	.	.	.	.	.	.	.	.	.	.
16F#\JJ	.	16f#/JJ	.	16f#/JJ	.	.	.	.	.	.	.	.	.	.	.	.	.	.	.
!	!	!	!	!	!	!LO:LB:g=original	!	!	!	!	!	!	!	!	!	!	!	!	!
=52	=52	=52	=52	=52	=52	=52	=52	=52	=52	=52	=52	=52	=52	=52	=52	=52	=52	=52	=52
8G\L	.	8g/L	.	8g/L	.	2B\	.	-ni-	2B\	in	-ni-	2b\	-o	-ni-	2b\	nunc	-ni-	2.r	2.r
8F#\	.	8f#/	.	8f#/	.	.	.	.	.	.	.	.	.	.	.	.	.	.	.
8G\	.	8g/	.	8g/	.	.	.	.	.	.	.	.	.	.	.	.	.	.	.
8E\	.	8e/	.	8e/	.	.	.	.	.	.	.	.	.	.	.	.	.	.	.
8F#\	.	8f#/	.	8f#/	.	4A\	-cto	-mi-	4A\	prin-	-mi-	4a\	et	-mi-	4a\	et	-mi-	.	.
!	!	!LO:TX:b:i:t=Verte	!	!	!	!	!	!	!	!	!	!	!	!	!	!	!	!	!
8D\J	.	8d/J	.	8d/J	.	.	.	.	.	.	.	.	.	.	.	.	.	.	.
!	!	!LO:PB:g=original	!	!	!	!	!	!	!LO:LB:g=original	!	!	!	!	!	!	!	!	!	!
=53	=53	=53	=53	=53	=53	=53	=53	=53	=53	=53	=53	=53	=53	=53	=53	=53	=53	=53	=53
!LO:TX:t=P:problem:mixed beam	!	!LO:TX:t=P:problem:mixed beam	!	!LO:TX:t=P:problem:mixed beam	!	!	!	!	!	!	!	!	!	!	!	!	!	!	!
8E\L	.	8e/L	.	8e/L	.	4G\	San-	-co-	4G/	-ci-	-co-	4g\	nunc	-co-	4g/	Sem-	-co-	4r	4r
8C#\	.	8c#/	.	8c#/	.	.	.	.	.	.	.	.	.	.	.	.	.	.	.
8D\	.	8d/	.	8d/	.	4F#\	.	-rum	4F#/	-pi-	-rum	4f#\	.	-rum	4f#/	-per	-rum	4r	4r
8DD/J	.	8dd\J	.	8dd\J	.	.	.	.	.	.	.	.	.	.	.	.	.	.	.
!LO:LB:g=original	!	!	!	!	!	!	!	!	!	!	!	!	!	!	!	!	!	!	!
8D\L	.	8d/L	.	8d/L	.	4A\	-cto	tu-	4A/	-o	tu-	4a\	et	tu-	4a\	A-	tu-	4ff#\	4aa\
16E\L	.	16e/L	.	16e/L	.	.	.	.	.	.	.	.	.	.	.	.	.	.	.
16F#\JJ	.	16f#/JJ	.	16f#/JJ	.	.	.	.	.	.	.	.	.	.	.	.	.	.	.
=54	=54	=54	=54	=54	=54	=54	=54	=54	=54	=54	=54	=54	=54	=54	=54	=54	=54	=54	=54
!LO:TX:t=P:problem:mixed beam	!	!	!	!	!	!	!	!	!	!	!	!	!	!	!	!	!	!	!
8G\L	6_	8g\L	.	8g\L	.	4G\	A-	-o-	4G/	A-	-o-	4g\	Sem-	-o-	4g/	.	-o-	4ee\	4gg\
8G\	.	8ee\J	.	8ee\J	.	.	.	.	.	.	.	.	.	.	.	.	.	.	.
8A\	4	4dd\	.	4dd\	.	4F#\	.	.	4F#/	.	.	4f#\	.	.	4f#/	-men	.	4dd\	4ff#\
8A\	.	.	.	.	.	.	.	.	.	.	.	.	.	.	.	.	.	.	.
8AA/	3	4cc#\	.	4cc#\	.	4E\	.	.	4E/	.	.	4e\	.	.	4e/	a-	.	4a/	4ee\
8AA/J	.	.	.	.	.	.	.	.	.	.	.	.	.	.	.	.	.	.	.
=55	=55	=55	=55	=55	=55	=55	=55	=55	=55	=55	=55	=55	=55	=55	=55	=55	=55	=55	=55
!	!	!LO:TX:t=P:problem:mixed beam	!	!LO:TX:t=P:problem:mixed beam	!	!	!	!	!	!	!	!	!	!	!	!	!	!	!
8D\L|	.	8dd\L	.	8dd\L	.	4F#\	-men	-rum	4F#/	-men	-rum	4f#\	-per	-rum	4f#/	-men	-rum	4f#/	4dd\
(16D\L	.	16d/L	.	16d/L	.	.	.	.	.	.	.	.	.	.	.	.	.	.	.
16E\JJ)	.	16e/JJ	.	16e/JJ	.	.	.	.	.	.	.	.	.	.	.	.	.	.	.
8F#\L|	.	8f#/L	.	8f#/L	.	4r	.	.	4r	.	.	4r	.	.	4r	.	.	4r	4r
(16F#\L	.	16f#/L	.	16f#/L	.	.	.	.	.	.	.	.	.	.	.	.	.	.	.
16G\JJ)	.	16g/JJ	.	16g/JJ	.	.	.	.	.	.	.	.	.	.	.	.	.	.	.
*	*	*	*	*	*	*	*	*ij	*	*	*ij	*	*	*ij	*	*	*ij	*	*
8A\L|	.	8a\L	.	8a\L	.	4A\	a-	tu-	4A\	a-	tu-	4e\	A-	tu-	4cc#\	a-	tu-	4a/	4ee\
(16B\L	.	16b\L	.	16b\L	.	.	.	.	.	.	.	.	.	.	.	.	.	.	.
16c#\JJ)	.	16cc#\JJ	.	16cc#\JJ	.	.	.	.	.	.	.	.	.	.	.	.	.	.	.
!	!	!	!	!	!	!	!	!	!	!	!	!	!	!	!	!	!	!	!LO:LB:g=original
=56	=56	=56	=56	=56	=56	=56	=56	=56	=56	=56	=56	=56	=56	=56	=56	=56	=56	=56	=56
!LO:TX:b:i:t=Volti Tecum	!	!	!	!	!	!	!	!	!	!	!	!	!	!	!	!	!	!	!
4d\|	.	4dd\	.	4dd\	.	4d\	.	-o-	4A\	.	-o-	4f#\	.	-o-	4dd\	.	-o-	4f#/	4dd\
4D\|	.	4d/	.	4d/	.	4D\	-men	-rum]]	4A\	-men	-rum]]	4f#\	-men	-rum]]	4dd\	-men	-rum]]	4f#/	4dd\
*	*	*	*	*	*	*	*	*Xij	*	*	*Xij	*	*	*Xij	*	*	*Xij	*	*
!	!	!	!	!	!	!	!	!	!	!	!	!LO:TX:b:i:t=Volti Solo	!	!	!LO:TX:b:i:t=Volti Solo	!	!	!	!
4r	.	4r	.	4r	.	4r	.	.	4r	.	.	4r	.	.	4r	.	.	4r	4r
==	==	==	==	==	==	==	==	==	==	==	==	==	==	==	==	==	==	==	==
*-	*-	*-	*-	*-	*-	*-	*-	*-	*-	*-	*-	*-	*-	*-	*-	*-	*-	*-	*-
!!!system-decoration: [(g1)][(g2)][(g3)]s9
!!!RDF**kern: | = vertical stroke
!!!AIN: 1 alto 1 bass 1 organ 1 soprn 1 tenor 2 tromp 2 violn
!!!ENC: Anastazja Marusiak
!!!END: 2020-07-13
!!!ENC: Marta Lawrence
!!!END: 2021-01-13
